icons/apps/48/okular.svg

<?xml version="1.0" encoding="UTF-8" standalone="no"?>
<svg xmlns="http://www.w3.org/2000/svg" xmlns:xlink="http://www.w3.org/1999/xlink" width="48" height="48" version="1.1">
 <defs>
  <linearGradient id="linearGradient5022">
   <stop style="stop-color:#ffffff;stop-opacity:1;" offset="0"/>
   <stop style="stop-color:#ffffff;stop-opacity:0;" offset="1"/>
  </linearGradient>
  <linearGradient xlink:href="#linearGradient4159" id="linearGradient4158" x1="409.571" y1="543.798" x2="409.571" y2="503.798" gradientUnits="userSpaceOnUse" gradientTransform="matrix(1.1250015,0,0,1,-51.071966,0)"/>
  <linearGradient id="linearGradient4143">
   <stop style="stop-color:#197cf1;stop-opacity:1" offset="0"/>
   <stop style="stop-color:#20bcfa;stop-opacity:1" offset="1"/>
  </linearGradient>
  <linearGradient xlink:href="#linearGradient4143" id="linearGradient4555" x1="35" y1="44" x2="35" y2="7" gradientUnits="userSpaceOnUse"/>
  <linearGradient id="linearGradient4159">
   <stop style="stop-color:#1d1e1e;stop-opacity:1" offset="0"/>
   <stop style="stop-color:#44484c;stop-opacity:1" offset="1"/>
  </linearGradient>
  <linearGradient id="linearGradient4435">
   <stop style="stop-color:#c61423;stop-opacity:1" offset="0"/>
   <stop style="stop-color:#dc2b41;stop-opacity:1" offset="1"/>
  </linearGradient>
  <linearGradient xlink:href="#linearGradient4435" id="linearGradient4866" x1="396.571" y1="520.798" x2="396.571" y2="503.798" gradientUnits="userSpaceOnUse"/>
  <linearGradient xlink:href="#linearGradient4227" id="linearGradient4884" x1="8" y1="4" x2="22" y2="18" gradientUnits="userSpaceOnUse"/>
  <linearGradient id="linearGradient4227">
   <stop offset="0" style="stop-color:#292c2f;stop-opacity:1"/>
   <stop offset="1" style="stop-color:#000000;stop-opacity:0;"/>
  </linearGradient>
  <linearGradient xlink:href="#linearGradient5022" id="linearGradient5028" x1="396.571" y1="527.798" x2="396.571" y2="504.798" gradientUnits="userSpaceOnUse"/>
 </defs>
 <g transform="translate(-384.57143,-499.798)">
  <rect style="opacity:1;fill:url(#linearGradient4158);fill-opacity:1.0;stroke:none" width="36" height="40" x="390.57" y="503.8" ry="0"/>
  <path style="font-style:normal;font-variant:normal;font-weight:normal;font-stretch:normal;font-size:medium;line-height:125%;font-family:'Impregnable Personal Use Only';-inkscape-font-specification:'Impregnable Personal Use Only';letter-spacing:0px;word-spacing:0px;fill:url(#linearGradient4555);fill-opacity:1;stroke:none;stroke-width:1px;stroke-linecap:butt;stroke-linejoin:miter;stroke-opacity:1" d="M 42 6.7070312 C 40.903061 7.1602802 39.805921 7.7557544 38.708984 8.5351562 C 36.864351 9.8458162 35.117264 11.496061 33.466797 13.486328 C 31.864877 15.428048 30.408316 17.637588 29.097656 20.113281 C 27.835536 22.540435 26.888873 25.06422 26.257812 27.685547 C 25.578213 30.306867 25.287679 32.710091 25.384766 34.894531 C 25.530392 37.030425 25.990891 38.82691 26.767578 40.283203 C 27.544271 41.73949 28.611503 42.783002 29.970703 43.414062 C 31.32991 44.045122 32.932704 44.165684 34.777344 43.777344 C 36.57343 43.388997 38.393641 42.541129 40.238281 41.230469 C 40.842095 40.796962 41.425815 40.322841 42 39.830078 L 42 35.259766 C 41.637935 35.5419 41.269467 35.81059 40.894531 36.060547 C 39.438238 36.982867 38.029129 37.516483 36.669922 37.662109 C 35.262175 37.807743 34.074376 37.564654 33.103516 36.933594 C 32.132656 36.302534 31.379676 35.35587 30.845703 34.09375 C 30.36027 32.83163 30.117188 31.327625 30.117188 29.580078 C 30.117187 27.783985 30.407714 25.84126 30.990234 23.753906 C 31.572748 21.66656 32.39885 19.676383 33.466797 17.783203 C 34.534744 15.841483 35.698818 14.14184 36.960938 12.685547 C 38.271604 11.180714 39.631316 9.9672419 41.039062 9.0449219 C 41.360608 8.8305578 41.680821 8.6448356 42 8.4707031 L 42 6.7070312 z" transform="translate(384.57143,499.798)"/>
  <rect style="opacity:1;fill:#080809;fill-opacity:1;stroke:none" width="36" height="1" x="390.57" y="542.8"/>
  <rect style="opacity:0.6;fill:#080809;fill-opacity:1;stroke:none;stroke-opacity:1" width="2" height="40" x="390.57" y="503.8"/>
  <path style="fill:url(#linearGradient4884);fill-rule:evenodd;stroke:none;stroke-width:1px;stroke-linecap:butt;stroke-linejoin:miter;stroke-opacity:1;fill-opacity:1;opacity:0.2" d="M 16 4 L 16 18 L 16 21 L 12 18.691406 L 8 21 L 31 44 L 42 44 L 42 30 L 16 4 z" transform="translate(384.57143,499.798)"/>
  <rect style="opacity:1;fill:#8b8f8f;fill-opacity:1;stroke:none;stroke-opacity:1" width="34" height="1" x="392.57" y="541.8"/>
  <rect style="opacity:1;fill:#212323;fill-opacity:0.45197742;stroke:none;stroke-opacity:1" width="34" height="1" x="392.57" y="540.8"/>
  <path style="opacity:1;fill:url(#linearGradient4866);fill-opacity:1;stroke:none;stroke-opacity:1" d="m 392.57143,503.798 0,17 4,-2.30859 4,2.30859 0,-17 -8,0 z"/>
  <path style="opacity:0.15;fill:url(#linearGradient5028);fill-opacity:1;stroke:none;stroke-opacity:1" d="m 393.57144,503.798 6,0 0,15 -3,-2 -3,2 z"/>
 </g>
</svg>

<svg width="48" xmlns="http://www.w3.org/2000/svg" height="48">
 <defs>
  <linearGradient id="a" y1="543.8" y2="503.8" x2="0" gradientUnits="userSpaceOnUse" gradientTransform="matrix(1.125 0 0 1-51.07 0)">
   <stop stop-color="#1d1e1e"/>
   <stop offset="1" stop-color="#44484c"/>
  </linearGradient>
  <linearGradient id="b" y1="520.8" y2="503.8" x2="0" gradientUnits="userSpaceOnUse">
   <stop stop-color="#c61423"/>
   <stop offset="1" stop-color="#dc2b41"/>
  </linearGradient>
  <linearGradient id="c" y1="4" x1="8" y2="18" x2="22" gradientUnits="userSpaceOnUse">
   <stop stop-color="#292c2f"/>
   <stop offset="1" stop-opacity="0"/>
  </linearGradient>
  <linearGradient id="d" y1="527.8" y2="504.8" x2="0" gradientUnits="userSpaceOnUse">
   <stop stop-color="#ffffff"/>
   <stop offset="1" stop-color="#ffffff" stop-opacity="0"/>
  </linearGradient>
 </defs>
 <g transform="translate(-384.57-499.8)">
  <rect width="36" x="390.57" y="503.8" fill="url(#a)" rx="0" height="40"/>
  <path d="m42 6.707c-1.097.453-2.194 1.049-3.291 1.828-1.845 1.311-3.592 2.961-5.242 4.951-1.602 1.942-3.058 4.151-4.369 6.627-1.262 2.427-2.209 4.951-2.84 7.572-.68 2.621-.97 5.02-.873 7.209.146 2.136.606 3.932 1.383 5.389.777 1.456 1.844 2.5 3.203 3.131 1.359.631 2.962.752 4.807.363 1.796-.388 3.616-1.236 5.461-2.547.604-.434 1.188-.908 1.762-1.4v-4.57c-.362.282-.731.551-1.105.801-1.456.922-2.865 1.456-4.225 1.602-1.408.146-2.596-.097-3.566-.729-.971-.631-1.724-1.578-2.258-2.84-.485-1.262-.729-2.766-.729-4.514 0-1.796.291-3.739.873-5.826.583-2.087 1.409-4.078 2.477-5.971 1.068-1.942 2.232-3.641 3.494-5.098 1.311-1.505 2.67-2.718 4.078-3.641.322-.214.642-.4.961-.574z" transform="translate(384.57 499.8)"/>
  <g fill="#080809">
   <rect width="36" x="390.57" y="542.8" height="1"/>
   <rect width="2" x="390.57" opacity=".6" y="503.8" height="40"/>
  </g>
  <path opacity=".2" fill="url(#c)" fill-rule="evenodd" d="m16 4v17l-4-2.309-4 2.309 23 23h11v-14z" transform="translate(384.57 499.8)"/>
  <rect width="34" x="392.57" y="541.8" fill="#8b8f8f" height="1"/>
  <rect width="34" x="392.57" y="540.8" fill="#212323" height="1" fill-opacity=".452"/>
  <path fill="url(#b)" d="m392.57 503.8v17l4-2.309 4 2.309v-17z"/>
  <path opacity=".15" fill="url(#d)" d="m393.57 503.8h6v15l-3-2-3 2z"/>
 </g>
</svg>
